!!!OTL: LASSET DIE FEURIGEN BOMBEN ERSCHALLEN
!!!ARE: Europa, Mitteleuropa, Deutschland
!!!SCT: F0539
!!!YEM: Copyright 1995, estate of Helmut Schaffrath.
**kern
*ICvox
*Ivox
*M2/4
*k[f#]
*G:
=1
{4g
8.g
16a
=2
4b
8b
8b
=3
8.a
16g
8a
8b
=4
4g
4d}
=5
{4b
4b
=6
4.dd
8dd
=7
8.cc
16b
8.cc
16dd
=8
4b
4r}
=9
{4g
8.g
16a
=10
4b
8b
8b
=11
8.a
16g
8a
8b
=12
4g
4d}
=13
{4b
4b
=14
4.dd
8dd
=15
8.cc
16b
8.cc
16dd
=16
4b
4r}
=17
{8dd
8dd
8dd
8dd
=18
4ee
4ee
=19
4cc
4cc
=20
4dd
4dd}
=21
{4b
4b
=22
4cc
4cc
=23
4a
8a
8b
=24
4g
4r}
=25
{4dd
4dd
=26
4ee
4ee
=27
4cc
4cc
=28
4dd
4dd}
=29
{4b
4b
=30
4cc
4cc
=31
4a
8a
8b
=32
4g
4r}
=33
{2dd
=34
2ee}
=35
{2cc
=36
2dd}
=37
{2dd
=38
2ee}
=39
{2cc
=40
2dd}
=41
{4dd
8dd
8dd
=42
4ee
4ee
=43
8cc
8cc
8cc
8cc
=44
2dd}
=45
{4b
8b
8b
=46
4cc
4cc
=47
8.a
16g
8.a
16b
=48
4g
4r}
=49
{4dd
8dd
8dd
=50
4ee
4ee
=51
8cc
8cc
8cc
8cc
=52
2dd}
=53
{4b
8b
8b
=54
4cc
4cc
=55
8.a
16g
8.a
16b
=56
4g
4r}
==
!!!AGN: Studenten -, Trink - Lied
!!!ONB: ESAC (Essen Associative Code) Database: FINK
!!!AMT: simple duple
!!!AIN: vox
!!!EED: Helmut Schaffrath
!!!EEV: 1.0
*-
